X: 1
T: Fiddler's Chair, The
M: 4/4
L: 1/8
R: reel
K: Gmaj
|:(3BcB Ac BGG2|DEFG ABcA|GEED E2EF|GFGD AGG2:|
|:edef gage|gage dBBA|GABG Bdd2|edBG A4:|
